X: 2149
T: Aughacashel, The
R: reel
M: 4/4
K: Gmajor
E|:DEGA BG~G2|AGBG AGEG|DEGA Bdef|gedB AGEG|
DEGA BGGB|AGBG AGEG|Bdee dege|1 dBAB G3E:|2 dBAB G3B||
|:GB~B2 GABd|eBdB G3B|ABGB AE~E2|cABG ABde|
~g3a bgaf|gedB ABGE|DEGA Bdge|1 dBAB G3B:|2 dBAB G4||

